!!!COM: Mozart
!!!OTL: Sechs Variationen in F uber die Arie 'Salve tu, Domine' aus der Oper 'I filosofi immaginarii' 
!!!Variation: Theme b
**function	**harm	**kern	**kern
*	*	*clefF4	*clefG2
*	*	*k[b-]	*k[b-]
*M3/4	*M3/4	*M3/4	*M3/4
*F:	*F:	*F:	*F:
8T	8I	8F]	(8f
8T	8Vb	4r	8eL 8g
8T	8V7d/IV	.	8e-J) 8a
=13	=13	=13	=13
*	*	*^	*
.	.	.	.	(q32cc
2T	2IVc	(2d	[2.F	(8b-L)
.	.	.	.	8aJ
.	.	.	.	8b-L
.	.	.	.	8ddJ
4T	4V7b	4e)	.	8ccL
.	.	.	.	8b-J)
=14	=14	=14	=14	=14
2.T	2.I	4f	4F]	8g#L
.	.	.	.	8aJ
.	.	8F'L	4r	8r
.	.	(8FJ	.	(8a
.	.	8GL	4r	8b-L
.	.	8AJ)	.	8ccJ)
=15	=15	=15	=15	=15
.	.	.	.	(q32ee-
2.T	2.IVc	(8B-L	[2.F	(8ddL)
.	.	8AJ	.	8cc#J
.	.	8B-L	.	8ddL
.	.	8dJ	.	8ffJ
.	.	8cL	.	8eeL
.	.	8B-J)	.	8ddJ)
=16	=16	=16	=16	=16
2.T	2.I	8.dL	4F]	8.ffL
.	.	16B-Jk	.	16ddJk
.	.	4A	4F	4cc
.	.	4r	4r	4r
*	*	*v	*v	*
=17	=17	=17	=17
*	*	*	*^
2.D	2.V	4CC 4C	(8.ccL	4e 4g
.	.	.	16eeJk)	.
.	.	4EE 4E	8g'L	4r
.	.	.	8g'J	.
.	.	4GG 4G	8r	4r
.	.	.	8f 8b	.
=18	=18	=18	=18	=18
4D	4V	4C 4c	(8.ccL	4e 4g
.	.	.	16eeJk)	.
4D	4Vb	4EE 4E	8g'L	4r
.	.	.	8g'J	.
4D	4V7/V	4GG 4G	8r	4r
.	.	.	8f 8b	.
=19	=19	=19	=19	=19
4D	4V	4C 4c	8ccL	4e
.	.	.	(16eeL	.
.	.	.	16ggJJ)	.
*	*	*	*v	*v
4D	4Vb	4EE 4E	8g'L
.	.	.	8g'J
4D	4V7/V	4GG 4G	8r
.	.	.	8f 8b
=20	=20	=20	=20
2.D	2.V	4.CC; 4.C;	4.e; 4.cc;
.	.	(8A'	(8cc#'
.	.	8B-'L	8dd'L
.	.	8A'J)	8cc'J)
=21	=21	=21	=21
2.D	2.V7	(8G'L	(8b-'L
.	.	8F'J	8a'J
.	.	8E'L	8g'L
.	.	8G'J	8b-'J
.	.	8F'L	8a'L
.	.	8E'J)	8g'J)
=22	=22	=22	=22
2.T	2.I	4F	8B-L 8e
.	.	.	8AJ 8f
.	.	4FF	4A 4f
.	.	4r	4r
*-	*-	*-	*-
